!!!OTL: Die unbarmherzige Schwester (59), S. 184
!!!id: T0205
**kern
*clefG2
*k[f#c#]
*e:
{8B
=1
8e
8f#
8g
8a
=2
8b
8a}
8r
=3
{8dd
=4
16dd
8cc#
16b
8b
8a
=5
4b}
=6
{4b
=7
8e
8f#
8g
8f#
=8
8e
8d
4e}
=9
{8b
8b
16a
16g
16a
16b
=10
8b
8a}
8r
=11
{8b
=12
16g
16f#
16e
16f#
8g
8a
=13
8b
8a}
8r
=14
{8b
=15
16g
16f#
16e
16f#
16g
16g
8f#
=16
4e}
8r
==
*-
!!!minrhy: 16
!!!meters: 2/4 ]  ZZ[6
!!!cut: Die unbarmherzige Schwester (59), S. 184
!!!reg: Luxemburg
!!!trd: Singendes Volk, Esch-Alzette 1937 posth.
!!!rhy1: X_  X_X_X_X_  X_X_0_
!!!rhy2: X_  XX_XX_X_  X__
!!!key: T0205  16  E 2/4 ]  ZZ[6
!!!mod: HEPTATONIK DORISCH]  AMBITUS[10b
!!!kad: 451441
!!!akz: 15_7b5_11_55_3b5_3b1_
!!!fot: 'a__b__c__d__e__ew_
!!!for: 'a__b__aw_c__d__e__
!!!fok: '/__\__Sd_\__Vd_\__
!! PHRAS[VORWIEGEND AUFTAKTIG]
!!!fkt: Liebeslieder
!!!bem1: Triole anfangs der 2. Zeile als Synkope;
!!!bem2: Ettelbr&uuml;ck, hhh J.P. Neuen aus Esch-Alzette, 1933
!! THILL, Mathias:
!! PR[29] 2K[2] 2G[7] 3K[7] 3G[7] 4A[2] 4Ü[0] 5A[0] 6K[0] 6G[0]
!! 7K[2] 7G[0] 8A[0] MEHR[0] SI[27] ABS[45] SR[9] SP[18]
!! ST[9] 2k[11] 2g[29] 3k[0] 3g[0] 4d[2] 4ü[0] 5d[2] 6k[0] 6g[0]
!! 7k[0] 7g[0] 8d[0] mehr[0] si[44] dm[-17] sr[40] sp[4]
!! 1F[63] 2F[29] 3F[4] 4F[0] LF[0] 2P[4] 3P[0] 4P[0] TRI[0] DF[4] AB[48]
!! TF[0] U3K[0] U3[0] U4[0] U4Ü[0] U5[0] U6K[0] U6[0] U7K[0] U7[0]
!! N1[7] N2K[0] N2[11] N3K[0] N3[15] N4[13] N4Ü[0] N5[33] N6K[0] N6[11]
!!!n7k: 0] N7[4] O1[7] O2K[0] O2[0] O3K[0] O3[0] HÖ[0
!!!RNB: symbol: &uuml;  = u umlaut (UTF-8: Ã¼)
